svgs/nature/u1F320.layer2.svg

<svg xmlns="http://www.w3.org/2000/svg" viewBox="0 0 512 512" enable-background="new 0 0 512 512"><path fill="#FFAD29" d="M441.375 61.47c.01.003.017.01.027.014-.12-.004-.232-.015-.36-.015-36.41 0-288.088 97.512-288.088 97.512l58.35 80.977S400.526 113.055 438.04 73.26c.426-.87.818-1.697 1.176-2.48-16.852 36.763-107.528 172.253-149.333 234.06l-2.775 4.466 44.47 82.846c.002 0 124.618-326.135 109.798-330.684zm.403.37c-.037-.07-.082-.132-.132-.185.05.053.095.115.132.186zm.07 1.748c.1-.576.118-1.042.05-1.39.07.348.05.813-.05 1.39zm.04-1.44c-.022-.095-.05-.18-.085-.257.035.08.063.164.084.26zm-.27-.525c-.064-.058-.134-.106-.216-.14.08.034.152.082.215.14zm-.346 4.12c-.182.545-.4 1.137-.652 1.776.252-.64.47-1.234.652-1.777zm.562-2.08c-.03.167-.068.343-.112.528.044-.183.08-.36.112-.526zm-.14.647c-.046.184-.098.376-.156.577.058-.2.11-.393.155-.577zm-.188.69c-.07.236-.146.48-.232.738.085-.258.162-.503.232-.738zm-1.8 4.692c-.15.335-.303.678-.465 1.032.164-.353.32-.697.466-1.032zm.882-2.097c-.113.285-.233.58-.36.882.127-.303.247-.597.36-.882zm-.427 1.043c-.12.288-.247.584-.38.887.133-.303.26-.6.38-.887z"/></svg>

<?xml version="1.0" encoding="iso-8859-1"?>
<!-- Generator: Adobe Illustrator 18.1.0, SVG Export Plug-In . SVG Version: 6.00 Build 0)  -->
<!DOCTYPE svg PUBLIC "-//W3C//DTD SVG 1.1//EN" "http://www.w3.org/Graphics/SVG/1.1/DTD/svg11.dtd">
<svg version="1.1" xmlns="http://www.w3.org/2000/svg" xmlns:xlink="http://www.w3.org/1999/xlink" x="0px" y="0px"
	 viewBox="0 0 512 512" enable-background="new 0 0 512 512" xml:space="preserve">
<g id="Layer_3">
	<path fill="#FFAD29" d="M441.375,61.469c0.01,0.004,0.017,0.011,0.027,0.015c-0.121-0.004-0.232-0.015-0.361-0.015
		c-36.409,0-288.087,97.514-288.087,97.514l58.351,80.977c0,0,189.221-126.903,226.736-166.7c0.424-0.87,0.816-1.696,1.174-2.479
		c-16.852,36.763-107.528,172.253-149.333,234.059l-2.775,4.467l44.471,82.846C331.579,392.152,456.195,66.018,441.375,61.469z
		 M441.778,61.841c-0.037-0.071-0.082-0.133-0.132-0.186C441.697,61.708,441.741,61.77,441.778,61.841z M441.848,63.588
		c0.1-0.576,0.118-1.042,0.05-1.391C441.967,62.546,441.949,63.011,441.848,63.588z M441.887,62.148
		c-0.021-0.095-0.049-0.18-0.084-0.257C441.838,61.968,441.866,62.053,441.887,62.148z M441.617,61.623
		c-0.063-0.058-0.133-0.106-0.215-0.139C441.483,61.517,441.554,61.565,441.617,61.623z M441.272,65.744
		c-0.182,0.544-0.4,1.136-0.652,1.775C440.872,66.88,441.09,66.287,441.272,65.744z M441.834,63.663
		c-0.031,0.167-0.068,0.343-0.112,0.528C441.766,64.006,441.803,63.83,441.834,63.663z M441.693,64.31
		c-0.045,0.184-0.097,0.376-0.155,0.577C441.596,64.686,441.648,64.494,441.693,64.31z M441.506,65
		c-0.07,0.236-0.146,0.48-0.232,0.738C441.359,65.48,441.436,65.235,441.506,65z M439.705,69.692
		c-0.148,0.335-0.302,0.678-0.464,1.032C439.403,70.371,439.558,70.027,439.705,69.692z M440.588,67.595
		c-0.113,0.285-0.233,0.579-0.36,0.882C440.355,68.174,440.475,67.88,440.588,67.595z M440.161,68.638
		c-0.121,0.288-0.249,0.584-0.382,0.887C439.912,69.222,440.039,68.926,440.161,68.638z"/>
</g>
<g id="Layer_1">
</g>
</svg>
